static/icons/companies/discord.svg

<svg width="32" height="32" viewBox="0 0 32 32" fill="none" xmlns="http://www.w3.org/2000/svg">
<mask id="mask0_1387_3159" style="mask-type:luminance" maskUnits="userSpaceOnUse" x="2" y="5" width="28" height="22">
<path d="M29.3327 5.3335H2.66602V26.6668H29.3327V5.3335Z" fill="white"/>
</mask>
<g mask="url(#mask0_1387_3159)">
<path d="M25.2405 7.2332C23.5408 6.42782 21.7182 5.83444 19.8125 5.49459C19.7779 5.48804 19.7432 5.50442 19.7253 5.53721C19.4909 5.96776 19.2312 6.52944 19.0494 6.97092C16.9998 6.65402 14.9607 6.65402 12.953 6.97092C12.7712 6.51963 12.5021 5.96776 12.2666 5.53721C12.2488 5.50552 12.2141 5.48912 12.1794 5.49459C10.2748 5.83335 8.45219 6.42673 6.75149 7.2332C6.73677 7.23977 6.72414 7.25071 6.71577 7.26489C3.25866 12.5988 2.31163 17.8016 2.77622 22.9398C2.77831 22.9649 2.79198 22.9889 2.8109 23.0042C5.0918 24.7341 7.30124 25.7843 9.46966 26.4804C9.50435 26.4913 9.54112 26.4781 9.56321 26.4486C10.0761 25.7252 10.5334 24.9626 10.9254 24.1604C10.9486 24.1134 10.9265 24.0577 10.8792 24.0391C10.1539 23.755 9.46334 23.4086 8.79905 23.0152C8.7465 22.9836 8.74229 22.9058 8.79063 22.8687C8.93043 22.7605 9.07025 22.648 9.20374 22.5344C9.22789 22.5135 9.26154 22.5093 9.28994 22.5223C13.6542 24.5801 18.3789 24.5801 22.6915 22.5223C22.7199 22.508 22.7536 22.5125 22.7788 22.5333C22.9122 22.647 23.0521 22.7605 23.193 22.8687C23.2413 22.9058 23.2382 22.9836 23.1856 23.0152C22.5213 23.4162 21.8306 23.755 21.1044 24.038C21.0571 24.0565 21.0361 24.1134 21.0592 24.1604C21.4596 24.9613 21.9168 25.7242 22.4204 26.4475C22.4414 26.4781 22.4792 26.4913 22.5139 26.4804C24.6928 25.7843 26.9023 24.7341 29.1832 23.0042C29.2032 22.9889 29.2158 22.966 29.2179 22.9409C29.7739 17.0005 28.2866 11.8404 25.2752 7.26598C25.2678 7.25071 25.2552 7.23977 25.2405 7.2332ZM11.5772 19.8112C10.2632 19.8112 9.1806 18.5653 9.1806 17.0355C9.1806 15.5056 10.2422 14.2599 11.5772 14.2599C12.9225 14.2599 13.9948 15.5164 13.9737 17.0355C13.9737 18.5653 12.912 19.8112 11.5772 19.8112ZM20.438 19.8112C19.1241 19.8112 18.0414 18.5653 18.0414 17.0355C18.0414 15.5056 19.103 14.2599 20.438 14.2599C21.7833 14.2599 22.8555 15.5164 22.8345 17.0355C22.8345 18.5653 21.7833 19.8112 20.438 19.8112Z" fill="#121315"/>
</g>
</svg>

<svg xmlns="http://www.w3.org/2000/svg" width="32" height="32" fill="none"><mask id="a" width="28" height="22" x="2" y="5" maskUnits="userSpaceOnUse" style="mask-type:luminance"><path fill="#fff" d="M29.333 5.334H2.666v21.333h26.667z"/></mask><g mask="url(#a)"><path fill="#121315" d="M25.24 7.233a21.487 21.487 0 0 0-5.427-1.738.082.082 0 0 0-.088.042c-.234.43-.494.992-.676 1.434a19.665 19.665 0 0 0-6.096 0 14.686 14.686 0 0 0-.686-1.434.085.085 0 0 0-.088-.042 21.426 21.426 0 0 0-5.428 1.738.079.079 0 0 0-.035.032c-3.457 5.334-4.404 10.537-3.94 15.675.002.025.016.049.035.064A21.85 21.85 0 0 0 9.47 26.48a.085.085 0 0 0 .093-.031c.513-.724.97-1.486 1.362-2.289a.088.088 0 0 0-.046-.12 14.357 14.357 0 0 1-2.08-1.025.09.09 0 0 1-.008-.146c.14-.108.28-.221.413-.335a.08.08 0 0 1 .086-.012c4.364 2.058 9.089 2.058 13.402 0a.08.08 0 0 1 .087.011c.133.114.273.227.414.336a.09.09 0 0 1-.007.146c-.665.401-1.355.74-2.082 1.023a.089.089 0 0 0-.045.122c.4.801.858 1.564 1.361 2.288.021.03.06.043.094.032 2.179-.696 4.388-1.746 6.67-3.476a.089.089 0 0 0 .034-.063c.556-5.94-.931-11.1-3.943-15.675a.07.07 0 0 0-.034-.033M11.578 19.811c-1.314 0-2.396-1.246-2.396-2.776 0-1.53 1.061-2.775 2.396-2.775 1.345 0 2.418 1.256 2.397 2.775 0 1.53-1.062 2.776-2.397 2.776m8.861 0c-1.314 0-2.397-1.246-2.397-2.776 0-1.53 1.062-2.775 2.397-2.775 1.345 0 2.418 1.256 2.396 2.775 0 1.53-1.05 2.776-2.396 2.776"/></g></svg>
